!!!OTL: BIN I A LUSTIGA FUHRMANNSSOHN
!!!ARE: Europa, Mitteleuropa, Deutschland, Rheinland
!!!SCT: Z0181
!!!YEM: Copyright 1995, estate of Helmut Schaffrath.
**kern
*ICvox
*Ivox
*M3/4
*k[f#c#g#]
*A:
=1
{8cc#
8ee
4ee
4cc#
=2
8b
8dd
4dd
4b
=3
4cc#
4cc#
4cc#}
=4
{8cc#
8ee
4ee
4cc#
=5
8b
8dd
4dd
4b
=6
4cc#
2r}
=7
{8b
8b
8b
8b
8b
8cc#
=8
8ee
8dd
8dd
8cc#
4b}
=9
{8cc#
8cc#
8cc#
8cc#
8cc#
8dd
=10
8ff#
8ee
8ee
8dd
4cc#}
=11
{8cc#
8ee
4.ee
8cc#
=12
8b
8dd
4.dd
8b
=13
4cc#
4cc#
4cc#}
=14
{8cc#
8ee
4.ee
8cc#
=15
8b
8dd
4.dd
8dd
=16
4cc#
2r}
==
!!!AGN: Schiffer -, Handwerker - Lied
!!!ONB: ESAC (Essen Associative Code) Database: ZUCCAL
!!!AMT: simple triple
!!!AIN: vox
!!!EED: Helmut Schaffrath
!!!EEV: 1.0
*-
